X: 1
T:Blackthorn Stick, The
M:6/8
L:1/8
S:Kevin Dooley
R:Jig
N:Recorded by Spirit of the West, who probably also got this tune off
N:Kevin.
K:G
Bd|gfg ege|dBG AGE|DGG FGA|BGB A2 d|
gfg age| dBG AGE DGG FGA BGG G2 d:||
edd gdd|edd gdd|ede gfg|edB A2 d|gfg age|
dBG AGE|DGG FGA |BGG G2||
